lib/svgs/crown.svg

<svg xmlns="http://www.w3.org/2000/svg" viewBox="0 0 20 20">
    <path fill="#000" fill-rule="evenodd" d="M7.17719626,8.50335194 L5.038718,6.22857689 C4.66718734,5.83034289 4,6.0932437 4,6.63787692 L4,15.2732615 C4,15.6046324 4.26862915,15.8732615 4.6,15.8732615 L15.6769231,15.8732615 C16.0082939,15.8732615 16.2769231,15.6046324 16.2769231,15.2732615 L16.2769231,6.63787692 C16.2769231,6.0932437 15.6097357,5.83034289 15.2382051,6.22857689 L13.1203117,8.50335194 L11.2012623,6.78436666 C11.5279404,6.49223134 11.7336308,6.06756719 11.7336308,5.59507692 C11.7336308,4.7144753 11.0191555,4 10.1385538,4 C9.25726178,4 8.54347692,4.71424241 8.54347692,5.59507692 C8.54347692,6.06897399 8.75008473,6.49465032 9.07822915,6.78682097 L7.17719626,8.50335194 Z M5.22208231,13.2174901 L15.1123154,13.2174901 L15.1123154,14.6732609 L5.22845286,14.6732611 L5.22208231,13.2174901 Z M5.21683103,12.0174901 L5.19999998,8.17133206 L6.67851277,9.7453308 C6.90109388,9.98390968 7.27352827,10.0008866 7.51689185,9.78354727 L10.1464686,7.4494674 L12.7600312,9.78354727 C13.0033948,10.0008866 13.3758292,9.98390968 13.5984103,9.7453308 L15.1123156,8.17133206 L15.1123155,12.0174901 M10.1385538,5.99015385 C9.92017568,5.99015385 9.74347692,5.81334182 9.74347692,5.59507692 C9.74347692,5.37681203 9.92017568,5.2 10.1385538,5.2 C10.3564138,5.2 10.5336308,5.377217 10.5336308,5.59507692 C10.5336308,5.81293684 10.3564138,5.99015385 10.1385538,5.99015385 Z"/>
</svg>

<svg xmlns="http://www.w3.org/2000/svg" viewBox="0 0 20 20">
    <path fill="#000" fill-rule="evenodd" d="M7.177 8.503L5.04 6.23A.6.6 0 0 0 4 6.638v8.635a.6.6 0 0 0 .6.6h11.077a.6.6 0 0 0 .6-.6V6.638a.6.6 0 0 0-1.039-.41L13.12 8.504l-1.919-1.719A1.591 1.591 0 0 0 10.14 4a1.595 1.595 0 0 0-1.06 2.787m-3.857 6.43h9.89v1.456H5.228m-.011-2.656L5.2 8.171l1.479 1.574a.6.6 0 0 0 .838.039l2.63-2.335 2.613 2.335a.6.6 0 0 0 .838-.039l1.514-1.574v3.846M10.14 5.99a.395.395 0 1 1 .395-.395"/>
</svg>
